X: 40854
T: Travellers
R: waltz
M: 3/4
K: Aminor
|:a3 g e2|d3 c d2|e2 c2 A2|G6|
A2 c2 d2|B2 A3 G|A6|A6:|
|:a4 a2|b4 ab|c'2 a2 e2|A4 A2|
E4 E2|E3 c B2|A6|A6:|

